X:29
T:Polska efter Lars August Bengtsson
T:(SvL Småland 29)
R:Polska
S:Lars August Bengtsson
B:Svenska Låtar Småland
O:Loftahammar, Småland
M:3/4
L:1/16
K:G
d2Bc d2Bc d2Bc|d2d2 egfg d2g2|b2a2 g2f2 e2d2|dBcA G2A2 B2c2|
d2Bc d2Bc d2Bc|d2d2 egfg d2g2|b2a2 g2f2 e2d2|dBcA A4 G4:|
|:DFAF DFAF DFAF|D2DB cBcA B2G2|DFAF DFAF DFAF|B2Bc dBcA A2G2|
g2g2 d2B2 c2e2|dcBc A4 G4:|

